X: 2104
T: Atholl Highlanders, The
R: jig
M: 6/8
K: Amixolydian
|:ecc acc|acc Bcd|ecc acc|Bcd cBA|
ecc acc|acc Bcd|eae fed|cdB A3:|

